Papirus-Adapta-Nokto/24x24/actions/dialog-xml-editor.svg

<svg xmlns="http://www.w3.org/2000/svg" width="24" height="24" viewBox="0 0 24 24">
 <defs>
  <style id="current-color-scheme" type="text/css">
   .ColorScheme-Text { color:#cfd8dc; } .ColorScheme-Highlight { color:#00bcd4; }
  </style>
 </defs>
 <path style="fill:currentColor" class="ColorScheme-Text" d="m9.5 0l-4 15.754 1 0.246 4-15.754-1-0.246zm-5.2461 3l-3.9746 4.6445-0.2793 0.3555 0.2793 0.3555 3.9746 4.6445 1.7461-0.709-3.6641-4.291 3.6641-4.291-1.7461-0.709zm7.4921 0l-1.746 0.709 3.664 4.291-3.664 4.291 1.746 0.709 3.975-4.6445 0.279-0.3555-0.279-0.3555-3.975-4.6445z" transform="translate(4 4)"/>
</svg>

<svg xmlns="http://www.w3.org/2000/svg" width="24" height="24" version="1.1">
 <defs>
  <style id="current-color-scheme" type="text/css">
   .ColorScheme-Text { color:#dfdfdf; } .ColorScheme-Highlight { color:#4285f4; } .ColorScheme-NeutralText { color:#ff9800; } .ColorScheme-PositiveText { color:#4caf50; } .ColorScheme-NegativeText { color:#f44336; }
  </style>
 </defs>
 <g transform="translate(4,4)">
  <path style="fill:currentColor" class="ColorScheme-Text" d="M 9.5,0 5.5,15.754 6.5,16 10.5,0.246 Z M 4.2539,3 0,8 4.2539,13 6,12.291 2.3359,8 6,3.709 Z M 11.746,3 10,3.709 13.664,8 10,12.291 11.746,13 16,8 Z"/>
 </g>
</svg>
